X:1
T:The Tennessee Stud
M:4/4
L:1/8
K:D
 z4 z2 z D| DD F2 A2 AA| A A3 F3 =C| =C2 CC C2 CC| =C C3 C4| z4 z2 z =C|\
 DD FF AA AA| AG A2 F2 DD| FF FF DD DD| =CC ^C2 D4| z4 z2 z D| DD F2 A2 A2|\
 =c3 c A3 A| GG GG G2 GG| =F3 F E4-| E8| F A2 A A2 A2| =c c2 c A2 FF|\
 AA EF D2 A,A,| =CC ^C2 D3 z|
